X:132
T:Itsik hot khasene gehat
O:klezmer
M:2/4
L:1/8
Q:1/4=
K:G
V:1
B,|"Em" E EE E|B2 GG |"Am" AA BA |
"Em" GF EE |"Em" EE EE |"Am" EA GF |"Em" (G4 |
G)z zB, |"Em" EE EE |B2 GG |"Am" AA BA |
"Em" GF EB |"G" BB BB |"Am" cc BA |"Em" (E4 |
E)z ze  |:"Em" ee dc |Bc de |(B4 |
|1 B)z ze :|2 Bz zB || |:"C" ee "D7" dc |"G" BA GG |
"Am" Ac "B7" BA |"Em" GF Ez |"G" BB BB |"Am" cc BA |
|1 "B7" (B4 |B4) :|2 "Em" (E4 |E2) z||





